X:1
T: The Maid amongst the Roses
C:
R:Reel
Q: 232
K:D
M:4/4
L:1/8
BA FD D2 FD|D2 FA BE ED|BA FD D2 EF|AB de fe dB|
BA FD D2 FD|D2 FA BE ED|BA FD D2 EF|AB de fd d2|
|:a2 af a2 af|g2 ga be e2|a2 af ge dB|AB de fd d2|
a2 af a2 af|gf ga be e2|fa ef d2 dB|1AB de fe df:|2AB de fe dc|
BA FD D2 FD|D2 FA BE ED|BA FD D2 EF|AB de fe dB|
BA FD D2 FD|D2 FA BE ED|BA FD D2 EF|AB de fd d2||
